X: 12081
T: Etain McKinney's
R: polka
M: 2/4
K: Aminor
B|:cAAe|cAAc|dccA|GDDB|cAAe|cAAc|egge|1 d2 e2:|2 d2 e/f/g||
aAAa|gacd|e2 e2|dA e/f/g|
aAAa|gacd|eg e/d/c|d e/f/g|
aAAa|gacd|e2 e2|dcAB||

